X:1
T:E minor Walter Janes, 1807
T:Anne Steele, 1760 To a friend, on the death of a child 86. 86. (C. M.)
T:Funeral Hymn
T:Transcribed from The Harmonic Minstrelsey, 1807.
%%score [ 1 2 3 4 ]
L:1/8
Q:1/4=150
M:3/2
K:G
V:1 treble nm="Tr." snm="Tr."
V:2 treble nm="C." snm="C."
V:3 treble-8 nm="T." snm="T."
V:4 bass nm="B." snm="B."
V:1
 G4 | G8 B4 | B8 G4 | (d4 A4) B4 | G8 B4 | B8 B4 | B8 (c2 B2) | A12 | B4 B4 B4 | %9
w: 1.~Life|is a|span, a|flee- * ting|hour, How|soon the|va- por *|flies!|Man is a|
w: 2.~Death|spreads like|win- ter's|fro- * zen|arms, And|beau- ty|smiles no *|more:|Ah! where are|
 (B4- B3) c (d3 c) | B8 c4 | B12 | G4 B4 ^c4 | B8 B4 | (B4 A4) (B3 c) | d8 B4 | A8 G4 | B8 B4 | %18
w: ten- * * der, *|tran- sient|flower,|Man is a|ten- der,|tran- * sient *|flower, That|e'en in|bloo- ming|
w: now * * those *|ri- sing|charms,|Ah! where are|now those|ri- * sing *|charms, Which|pleased our|eyes be-|
 B12 |] %19
w: dies.|
w: fore?|
V:2
 E4 | E8 G4 | F8 G4 | F8 G4 | E8 E4 | F8 G4 | G8 E4 | F12 | ^D4 D4 D4 | E8 F4 | G8 G4 | F12 | %12
w: 3.~The|once loved|form now|cold and|dead, Each|mourn- ful|thought em-|ploys;|And na- ture|weeps, her|com- forts|fled,|
w: 4.~But|wait the|in- ter-|po- sing|gloom, And|lo, stern|win- ter|flies;|And dressed in|beau- ty's|fai- rest|bloom,|
 E4 (F2 G2) A4 | (G4 F4) F4 | (G4 A4) G4 | (G4 F4) G4 | F8 D4 | G8 F4 | E12 |] %19
w: And na- * ture|weeps. * her|com- * forts|fled, * And|wi- thered|all her|joys.|
w: And dressed * in|beau- * ty's|fai- * rest|bloom, * The|flo- wery|tribes a-|rise.|
V:3
 B4 | B8 e4 | d8 B4 | (A4 d4) (^d2 e2) | B8 G4 | F8 E4 | G8 (A2 G2) | F12 | F4 F4 F4 | G8 A4 | %10
w: 5.~Hope|looks be-|yond the|bounds * of *|time, When|what we|now de- *|plore,|shall rise in|full im-|
w: 6.~Then|cease, fond|na- ture,|case * thy *|tears, Re-|li- gion|points on *|high;|There ev- er-|las- ting|
 B8 e4 | ^d12 | e4 d4 ^c4 | (d3 e f2 d2) B4 | (g4 f4) (e3 d) | (B4 A4) G4 | d8 B4 | %17
w: mor- tal|prime,|Shall rise in|full * * * im-|mor- * tal *|prime, * And|bloom to|
w: spring ap-|pears,|There ev- er-|las- * * * ting|spring * ap- *|pears, * And|joys that|
 (e2 g2 B4) ^d4 | e12 |] %19
w: fade * * no|more.|
w: can- * * not|die.|
V:4
 E,4 | E,8 E,4 | B,,8 B,,4 | D,8 B,,4 | E,8 E,4 | B,,8 G,4 | E,8 A,,4 | D,12 | B,,4 B,,4 B,,4 | %9
 E,8 D,4 | G,8 A,4 | B,12 | C4 B,4 A,4 | B,8 B,,4 | E,4 F,4 G,4 | D,8 G,4 | D,8 G,4 | %17
"^_________________________________________\nEdited by B. C. Johnston, 2016\nGrace notes following converted to eighth notes in Measures 10 and 15, Treble; and in Measure 14, Tenor." E,8 B,,4 | %18
 E,12 |] %19

